!!!!SEGMENT: pl-wtm--r-2139--007_wysocki-kasper-napoleon--la-legerte-n-7.krn
!!!cenid: 18xx:4374
!!!COM: Wysocki, Kasper Napoleon
!!!COM-rismID: pe41024789
!!!CDT: 1810/12/06-1850/09/21
!!!CNT: Polish
!!!GTL: La Légèrté
!!!OTL: N. 7.
!!!OMV: 007
!!!PDT:
!!!AGN:
!!!SMS-siglum: PL-Wtm
!!!SMS-shelfmark: R 2139
!!!SMS-shelfwork: 001-007 G
!!!SMS-variant:
!!!SMS-altvar:
!!!NIFC-rismSourceID: 1001139896
!!!NIFC-rismChildID: 1001139906
!!!NIFC-islandoraID: pl-wtm:29947
!!!URL-pdf-islandora: https://repozytorium.nifc.pl/islandora/object/pl-wtm:29947/datastream/PDF/view
!!!URL-scan: https://polish.musicsources.pl/pl/lokalizacje/galeria/rekopisy/6569/5 @EN{Scan on Polish Music Sources Website} @PL{Skany w portalu Dziedzictwo Muzyki Polskiej w otwartym dostępie}
!!!ONB-nifc: UWAGA: skan 5-6
!!!AIN: 2 piano
!!!key: G
!!!OMD: N. 7. Energico
**kern	**kern	**dynam
*part2	*part1	*part1
*staff2	*staff1	*
*>[A,A,B,B1,B,B2,C]	*>[A,A,B,B1,B,B2,C]	*>[A,A,B,B1,B,B2,C]
*>A	*>A	*>A
*I"fortepian	*I"fortepian	*
*Ipiano	*Ipiano	*
*ICklav	*ICklav	*
*clefF4	*clefG2	*
*k[f#c#]	*k[f#c#]	*
*G:	*G:	*
*M3/4	*M3/4	*
=	=	=
*	*8va	*
4r	8aa/L	f
.	8aa/J	.
=1	=1	=1
*^	*	*
*	*2\right	*	*
4r	2.D\	8aa\L	.
.	.	8aa\	.
4d 4A 4F#/	.	8aa\	.
.	.	8aa\	.
4d 4A 4F#/	.	8fff# 8ddd\	.
.	.	8aa\J	.
=2	=2	=2	=2
!	!LO:N:vis=2	!	!
4r	2.AA\	8aa\L	.
.	.	8aa\	.
4A 4E 4C#/	.	8aa\	.
.	.	8aa\	.
4A 4E 4C#/	.	8ggg 8ccc#\	.
.	.	8aa\J	.
*	*	*X8va	*
=3	=3	=3	=3
*rep	*	*	*
!	!LO:N:vis=2	!LO:TX:a:t=loco	!
4ryy	2.AA/yy	8bb-XL 8gg\	.
.	.	8aa\	.
4A 4E 4C#\yy	.	8gg 8ee\	.
.	.	8aa\	.
4A 4E 4C#\yy	.	8ee 8cc#\	.
.	.	8aa\J	.
*Xrep	*	*	*
=4	=4	=4	=4
4r	2.D\	8ff#L 8dd\	.
.	.	8a\	.
4d 4A 4F#/	.	8a\	.
.	.	8a\	.
4d 4A 4F#/	.	8a\	.
.	.	8a\J	.
!!LO:LB:g=original
=5	=5	=5	=5
4r	2.D\	8a\L	.
.	.	8a\	.
4d 4A 4F#/	.	8a\	.
.	.	8a\	.
4d 4A 4F#/	.	8ff# 8dd\	.
.	.	8a\J	.
=6	=6	=6	=6
*	*ped	*	*
!	!	!	!LO:DY:rj
4r	2.AA\	8a\L	p
.	.	8a\	.
4A 4E 4C#/	.	8a\	.
.	.	8a\	.
4A 4E 4C#/	.	8gg 8cc#\	.
.	.	8a\J	.
=7	=7	=7	=7
4r	2.D 2.AA\	8b-XL 8g/	.
.	.	8a/	.
4A 4G 4C#/	.	8g 8e/	.
.	.	8a/	.
4A 4G 4C#/	.	8e 8c#/	.
.	.	8a/J	.
*v	*v	*	*
=8	=8	=8
4A 4F# 4D\	4d/	.
4DD/	4r	.
=:|!|:	=:|!|:	=:|!|:
*>B	*>B	*>B
*	*8va	*
4r	8bb\L	f
.	8bb\J	.
=9	=9	=9
*^	*	*
*	*ped	*	*
4r	2.BB\	8bb\L	.
.	.	8bb\	.
4B 4A 4D#X/	.	8bb\	.
.	.	8bb\	.
4B 4A 4D#/	.	8fff# 8ddd#X\	.
.	.	8bb\J	.
!!LO:LB:g=original
=10	=10	=10	=10
4r	2.E\	8bb\L	.
.	.	8bb\	.
4B 4G/	.	8bb\	.
.	.	8bb\	.
4B 4G/	.	8ggg 8eee\	.
.	.	8bb\J	.
=11	=11	=11	=11
4r	2.AA\	8aa\L	.
.	.	8aa\	.
4A 4G 4C#/	.	8aa\	.
.	.	8aa\	.
4A 4G 4C#/	.	8eee 8ccc#\	.
.	.	8aa\J	.
=12	=12	=12	=12
4r	2.D\	8aa\L	.
.	.	8aa\	.
4A 4F#/	.	8aa\	.
.	.	8aa\	.
4A 4F#/	.	8fff# 8ddd\	.
.	.	8aa\J	.
=13	=13	=13	=13
*	*ped	*	*
!	!	!	!LO:DY:t=p.
4r	2.AA\	8aa\L	p
.	.	8aa\	.
4A 4G 4E/	.	8aa\	.
.	.	8aa\	.
4A 4G 4E/	.	8ccc#\	.
.	.	8eee\J	.
=14	=14	=14	=14
!	!LO:N:vis=2	!	!
4r	2.D\	(8fff#\L	.
.	.	8ddd\	.
4d 4A 4F#/	.	8aa\	.
.	.	8aaa\	.
4cn 4A 4D#X/	.	8ggg#X\	.
.	.	8fff#\J)	.
!!LO:LB:g=original
=15	=15	=15	=15
!!LO:TX:a:t=1. ma
*>B1	*>B1	*>B1	*>B1
4r	2.E\	(8eee\L	.
.	.	8ccc#\	.
4c#X/	.	8aa\	.
.	.	8eee\	.
4dn 4A 4G#X 4D/	.	8ddd\	.
.	.	8bb\J)	.
*v	*v	*	*
=16	=16	=16
4c# 4A\	4aa/	.
4AA/	4r	.
=17:|!|:	=17:|!|:	=17:|!|:
!!LO:TX:a:t=2 da
*>B2	*>B2	*>B2
*^	*	*
4r	2.D\	(8ddd/L	.
.	.	8ff#/	.
4d 4A 4F#/	.	8bb/	.
.	.	8aa/	.
4d 4A 4F#/	.	8ff#/	.
.	.	8dd/J)	.
*	*	*X8va	*
=18	=18	=18	=18
*>C	*>C	*>C	*>C
!	!	!LO:TX:a:t=loco	!
4r	2.AA\	8a\L	.
.	.	8a\	.
4G 4E 4C#/	.	8a\	.
.	.	8a\	.
4G 4E 4C#/	.	8cc#\	.
.	.	8ee\J	.
=19	=19	=19	=19
4r	2.D\	8dd\L	.
.	.	8dd\	.
4A 4F#/	.	8dd\	.
.	.	8dd\	.
4A 4F#/	.	8ff#\	.
.	.	8bb\J	.
!!LO:LB:g=original
=20	=20	=20	=20
4r	2.AA\	8a\L	.
.	.	8a\	.
4G 4E 4C#/	.	8a\	.
.	.	8a\	.
4G 4E 4C#/	.	8cc#\	.
.	.	8ee\J	.
=21	=21	=21	=21
4r	2.D\	8dd/L	.
.	.	8f#/	.
4A 4F#/	.	8b/	.
.	.	8a/	.
4A 4F#/	.	8f#/	.
.	.	8d/J	.
=22	=22	=22	=22
4r	2.AA\	8A/L	.
.	.	8A/	.
4G 4E 4C#/	.	8A/	.
.	.	8A/	.
4G 4E 4C#/	.	8B/	.
.	.	8c#/J	.
=23	=23	=23	=23
4r	2.D\	8d/L	.
.	.	8d/	.
4A 4F#/	.	8d/	.
.	.	8d/	.
4A 4F#/	.	8f#/	.
.	.	8b/J	.
=24	=24	=24	=24
4r	2.AA\	8a\L	.
.	.	8a\	.
4G 4E 4C#/	.	8a\	.
.	.	8a\	.
4G 4E 4C#/	.	8b\	.
.	.	8cc#\J	.
!!LO:LB:g=original
=25	=25	=25	=25
4r	2.D\	8dd\L	.
.	.	8dd\	.
4A 4F#/	.	8dd\	.
.	.	8dd\	.
4A 4F#/	.	8ff#\	.
.	.	8bb\J	.
*v	*v	*	*
=26	=26	=26
*	*8va	*
*^	*	*
4r	2.AA\	8aa\L	.
.	.	8aa\	.
4G 4E 4C#/	.	8aa\	.
.	.	8aa\	.
(4G 4E 4C#/	.	8bb\	.
.	.	8ccc#\J	.
*v	*v	*	*
=27	=27	=27
4F# 4D\)	8ddd\L	.
.	8aa\	.
4r	8aa\	.
.	8aa\	.
(4G 4E 4AA\	8ccc#\	.
.	8eee\J	.
=28	=28	=28
4F# 4D\)	8ddd\L	.
.	8ddd\	.
4r	8ddd\	.
.	8aa\	.
(4G 4E 4AA\	8aaa 8ccc#\	.
.	8aa\J	.
=29	=29	=29
4F# 4D\)	8ddd\L	.
.	8ddd\	.
4r	8ddd\	.
.	8aa\	.
(4G 4E 4AA\	8aaa 8ccc#\	.
.	8aa\J	.
!!LO:LB:g=original
=30	=30	=30
!LO:TX:t=P:problem:brak zakończenia łuku	!	!
4F# 4D\)	8ddd\L	.
.	8ddd\	.
4r	8ddd\	.
.	8ddd\	.
4r	8fff#\	.
.	8aaa\J	.
=31	=31	=31
4D 4DD/	4dddd 4ddd\	.
4r	4r	.
*	*X8va	*
!	!LO:TX:a:t=loco.	!
4r	8dd\L	.
.	8dd\J	.
=32	=32	=32
4D 4DD/	8dd\L	.
.	8dd\	.
4D 4DD/	8dd\	.
.	8dd\	.
4D 4DD/	8dd\	.
.	8dd\J	.
=33	=33	=33
4D 4DD/	4ddd 4ff# 4dd\	.
4r	4r	.
8r	8r	.
16ryy	16ryy	.
16D 16DD/	16dd 16f# 16d/	.
=34	=34	=34
[2.D [2.DD/	[2.dd [>2.f# [2.d/	.
=35	=35	=35
2.D] 2.DD/]	2.dd] 2.f#] 2.d/]	.
==	==	==
*-	*-	*-
!!!system-decoration: {(*)}
!!!RDF**kern: > = above
!!!ENC: Berenika Jozajtis
!!!END: 2023-07-16
!!!ENC: Marta Lawrence
!!!END: 2023-07-21
!!!YEC: Copyright 2022 Narodowy Instytut Fryderyka Chopina (https://polishscores.org)
!!!YEM: License CC-BY-4.0 (https://creativecommons.org/licenses/by/4.0)
